X:1
T:Hampden-Sidney, 77.76
T:Arthur Seymour Sullivan, 1874
T:Hampden-Sidney, 77.76
T:Public Domain
C:Arthur Seymour Sullivan, 1874
Z:Public Domain
%%score ( 1 2 ) ( 3 4 )
L:1/8
M:4/4
K:G
V:1 treble 
V:2 treble 
V:3 bass 
V:4 bass 
V:1
 [DB]3 [DB] [DB]2 [CA]2 | [B,G]2 [B,G]2 D4 | [B,G]3 [B,G] [DA]2 [DA]2 | [DB]2 [DB]2 [DA]4 | %4
 [Ec]3 [Ec] [Ec]2 [EB]2 | [EA]2 [A,A]2 [A,E]4 | [B,D]2 [DG]2 [GB]2 [FA]2 | [FA]4 G4 |] %8
V:2
 x8 | x4 D4 | x8 | x8 | x8 | x8 | x8 | x4 G4 |] %8
V:3
 [G,,G,]3 [G,,G,] [B,,G,]2 [D,F,]2 | G,2 G,2 [F,A,]4 | [E,G,]3 [E,G,] [D,F,]2 [C,F,]2 | %3
 [B,,G,]2 [G,,G,]2 [D,F,]4 | [A,,A,]3 [A,,A,] [A,,A,]2 [B,,^G,]2 | [C,A,]2 [C,E,]2 [^C,G,]4 | %6
 [D,G,]2 [D,B,]2 [D,D]2 [D,C]2 | [D,C]4 [G,,B,]4 |] %8
V:4
 x8 | G,2 G,2 x4 | x8 | x8 | x8 | x8 | x8 | x8 |] %8

